src/topics/icons/openlayers.svg

<svg height="259" preserveAspectRatio="xMidYMid" viewBox="0 0 256 259" width="256" xmlns="http://www.w3.org/2000/svg"><path d="m94.0285884 57.2132548c18.6828266-15.5590584 49.2595566-15.5623797 67.9457056 0l80.015658 66.6320952c18.679506 15.560718 18.682826 41.014219-.003321 56.576582l-80.012337 66.630433c-18.68947 15.564025-49.2662 15.559059-67.9457056 0l-80.0156417-66.630433c-18.68282697-15.559058-18.68282697-41.015864-.0033214-56.576582z" fill="#015965"/><path d="m94.0285884 35.5614737c18.6828266-15.5590583 49.2595566-15.5623797 67.9457056 0l80.015658 66.6320953c18.679506 15.56238 18.682826 41.017524-.003321 56.578242l-80.012337 66.630418c-18.68947 15.564057-49.2662 15.559042-67.9457056 0l-80.0156417-66.630418c-18.68282697-15.560718-18.68282697-41.01588-.0033214-56.578242z" fill="#e5e5e5"/><path d="m161.974294 12.3187941 80.015658 66.6320948c18.679506 15.5623796 18.682826 41.0175241-.003321 56.5782421l-80.012337 66.630435c-18.68947 15.564023-49.2662 15.559058-67.9457056 0l-80.0156417-66.630435c-18.68282697-15.560718-18.68282697-41.0158625-.0033214-56.5782421l80.0189631-66.6320948c18.6828266-15.55905831 49.2595566-15.56237969 67.9457056 0z" fill="#35bbce"/><path d="m244.310409 81.0995505c-.735738-.7081263-1.4931-1.4046168-2.300238-2.0761731l-80.021254-66.6935316c-18.687836-15.57711687-49.267309-15.57379234-67.9518399 0l-80.0261871 66.6935316c-18.68119189 15.5787791-18.68119189 41.0580286.0033217 56.6334836l8.6114847 7.176012c22.5160846-27.041798 98.4482866-101.9801642 221.6847126-61.7333225z" fill="#fff" opacity=".15"/></svg>

<?xml version="1.0" encoding="UTF-8" standalone="no"?>
<svg width="256px" height="259px" viewBox="0 0 256 259" version="1.1" xmlns="http://www.w3.org/2000/svg" xmlns:xlink="http://www.w3.org/1999/xlink" preserveAspectRatio="xMidYMid">
	<g>
		<path d="M94.0285884,57.2132548 C112.711415,41.6541964 143.288145,41.6508751 161.974294,57.2132548 L241.989952,123.84535 C260.669458,139.406068 260.672778,164.859569 241.986631,180.421932 L161.974294,247.052365 C143.284824,262.61639 112.708094,262.611424 94.0285884,247.052365 L14.0129467,180.421932 C-4.66988027,164.862874 -4.66988027,139.406068 14.0096253,123.84535 L94.0285884,57.2132548 L94.0285884,57.2132548 Z" fill="#015965"></path>
		<path d="M94.0285884,35.5614737 C112.711415,20.0024154 143.288145,19.999094 161.974294,35.5614737 L241.989952,102.193569 C260.669458,117.755949 260.672778,143.211093 241.986631,158.771811 L161.974294,225.402229 C143.284824,240.966286 112.708094,240.961271 94.0285884,225.402229 L14.0129467,158.771811 C-4.66988027,143.211093 -4.66988027,117.755931 14.0096253,102.193569 L94.0285884,35.5614737 L94.0285884,35.5614737 Z" fill="#E5E5E5"></path>
		<path d="M161.974294,12.3187941 L241.989952,78.9508889 C260.669458,94.5132685 260.672778,119.968413 241.986631,135.529131 L161.974294,202.159566 C143.284824,217.723589 112.708094,217.718624 94.0285884,202.159566 L14.0129467,135.529131 C-4.66988027,119.968413 -4.66988027,94.5132685 14.0096253,78.9508889 L94.0285884,12.3187941 C112.711415,-3.24026421 143.288145,-3.24358559 161.974294,12.3187941 L161.974294,12.3187941 Z" fill="#35BBCE"></path>
		<path d="M244.310409,81.0995505 C243.574671,80.3914242 242.817309,79.6949337 242.010171,79.0233774 L161.988917,12.3298458 C143.301081,-3.24727107 112.721608,-3.24394654 94.0370771,12.3298458 L14.01089,79.0233774 C-4.67030189,94.6021565 -4.67030189,120.081406 14.0142117,135.656861 L22.6256964,142.832873 C45.141781,115.791075 121.073983,40.8527088 244.310409,81.0995505 L244.310409,81.0995505 L244.310409,81.0995505 Z" opacity="0.15" fill="#FFFFFF"></path>
    </g>
</svg>
